X:1
T:Sean Ryans (2)
L:1/8
M:6/8
I:linebreak $
K:G
V:1 treble 
V:1
 EAA A2 B | cAB cAG | E3 G3 | G,B,D GFG |$ EAA A2 B | cAB cde | gfg (3efge |1 dBG A2 G :|2 %8
 dBG A2 a ||${b} aea{b} aef | gdg gdg | aea aef | gfe deg |${b} aea{b} aef | gdg gdg | gfg (3efge | %16
 dBG A2 a |${b} aea{b} aef | gdg gdg | a3 aef | gfe def |$ g2 e fed | edB GBd | gfg (3efge | %24
 dBG A2 G || %25
